X: 10
T: DOWN THE WAGGON WAY
B: "Old English Country Dances", Frank Kidson ed., William Reeves pub., London 1890
Z: 2010-9-26 John Chambers <jc:trillian.mit.edu>
M: C
L: 1/8
K: Dm
   de | f2fd g2ge | fafd    A2de | f2fd g2ge | faec A2 :|
|: de | faAB AFED | GBB/A/B defa | ABAF EDFA | AFA2 z2 :|


%%sep 1 1 500

%%sep 1 1 500

